app/img/logo.svg

<svg width="242" height="35" viewBox="0 0 242 35" version="1.1" xmlns="http://www.w3.org/2000/svg" xmlns:xlink="http://www.w3.org/1999/xlink" xmlns:figma="http://www.figma.com/figma/ns"><title>StevenLogo3</title><desc>Created using Figma</desc><g id="Canvas" transform="translate(-461 696)" figma:type="canvas"><g id="StevenLogo3" style="mix-blend-mode:normal;" figma:type="vector"><use xlink:href="#path0_fill" transform="translate(461.74 -695.5)" fill="#FFFFFF" style="mix-blend-mode:normal;"/><use xlink:href="#path1_fill" transform="translate(461.74 -695.5)" fill="#FFFFFF" style="mix-blend-mode:normal;"/><use xlink:href="#path2_fill" transform="translate(461.74 -695.5)" fill="#FFFFFF" style="mix-blend-mode:normal;"/><use xlink:href="#path3_fill" transform="translate(461.74 -695.5)" fill="#FFFFFF" style="mix-blend-mode:normal;"/><use xlink:href="#path4_fill" transform="translate(461.74 -695.5)" fill="#FFFFFF" style="mix-blend-mode:normal;"/><use xlink:href="#path5_fill" transform="translate(461.74 -695.5)" fill="#FFFFFF" style="mix-blend-mode:normal;"/><use xlink:href="#path6_fill" transform="translate(461.74 -695.5)" fill="#FFFFFF" style="mix-blend-mode:normal;"/><use xlink:href="#path7_fill" transform="translate(461.74 -695.5)" fill="#FFFFFF" style="mix-blend-mode:normal;"/><use xlink:href="#path8_fill" transform="translate(461.74 -695.5)" fill="#FFFFFF" style="mix-blend-mode:normal;"/><use xlink:href="#path9_fill" transform="translate(461.74 -695.5)" fill="#FFFFFF" style="mix-blend-mode:normal;"/><use xlink:href="#path10_fill" transform="translate(461.74 -695.5)" fill="#FFFFFF" style="mix-blend-mode:normal;"/><use xlink:href="#path11_fill" transform="translate(461.74 -695.5)" fill="#FFFFFF" style="mix-blend-mode:normal;"/><use xlink:href="#path12_fill" transform="translate(461.74 -695.5)" fill="#FFFFFF" style="mix-blend-mode:normal;"/><use xlink:href="#path13_fill" transform="translate(461.74 -695.5)" fill="#FFFFFF" style="mix-blend-mode:normal;"/><use xlink:href="#path14_fill" transform="translate(461.74 -695.5)" fill="#FFFFFF" style="mix-blend-mode:normal;"/><use xlink:href="#path15_fill" transform="translate(461.74 -695.5)" fill="#FFFFFF" style="mix-blend-mode:normal;"/><use xlink:href="#path16_fill" transform="translate(461.74 -695.5)" fill="#FFFFFF" style="mix-blend-mode:normal;"/><use xlink:href="#path17_fill" transform="translate(461.74 -695.5)" fill="#FFFFFF" style="mix-blend-mode:normal;"/><use xlink:href="#path18_fill" transform="translate(461.74 -695.5)" fill="#FFFFFF" style="mix-blend-mode:normal;"/><use xlink:href="#path19_fill" transform="translate(461.74 -695.5)" fill="#FFFFFF" style="mix-blend-mode:normal;"/><use xlink:href="#path20_fill" transform="translate(461.74 -695.5)" fill="#FFFFFF" style="mix-blend-mode:normal;"/><use xlink:href="#path21_fill" transform="translate(461.74 -695.5)" fill="#FFFFFF" style="mix-blend-mode:normal;"/></g></g><defs><path id="path0_fill" d="M 40.7598 14.2349C 40.7598 13.4074 40.4686 12.7696 39.8864 12.3214C 39.3127 11.8732 38.2724 11.4207 36.7655 10.9639C 35.2585 10.507 34.0598 9.99848 33.1694 9.43822C 31.4655 8.3608 30.6135 6.95584 30.6135 5.22335C 30.6135 3.70633 31.2257 2.45652 32.4501 1.47391C 33.6831 0.491305 35.2799 0 37.2407 0C 38.5422 0 39.7023 0.241342 40.7212 0.724028C 41.7401 1.20671 42.5407 1.89626 43.1229 2.79268C 43.7052 3.68048 43.9963 4.6674 43.9963 5.75344L 40.7598 5.75344C 40.7598 4.77083 40.4515 4.0037 39.835 3.45206C 39.2271 2.8918 38.3538 2.61167 37.215 2.61167C 36.1533 2.61167 35.327 2.84009 34.7362 3.29691C 34.154 3.75374 33.8629 4.39158 33.8629 5.21042C 33.8629 5.89997 34.1797 6.47747 34.8133 6.94291C 35.4469 7.39974 36.4915 7.84795 37.9471 8.28754C 39.4027 8.71851 40.5714 9.21412 41.4533 9.77438C 42.3352 10.326 42.9817 10.9639 43.3926 11.6879C 43.8036 12.4033 44.0091 13.2437 44.0091 14.2091C 44.0091 15.7778 43.4098 17.0276 42.2111 17.9585C 41.0209 18.8808 39.4027 19.3419 37.3563 19.3419C 36.0035 19.3419 34.7577 19.0919 33.6189 18.592C 32.4887 18.0835 31.6068 17.3853 30.9732 16.4975C 30.3481 15.6097 30.0356 14.5754 30.0356 13.3945L 33.285 13.3945C 33.285 14.4633 33.636 15.2908 34.3381 15.8769C 35.0402 16.463 36.0463 16.7561 37.3563 16.7561C 38.4865 16.7561 39.3342 16.5277 39.8993 16.0708C 40.4729 15.6054 40.7598 14.9934 40.7598 14.2349Z"/><path id="path1_fill" d="M 60.3715 2.89611L 54.5406 2.89611L 54.5406 19.0833L 51.317 19.0833L 51.317 2.89611L 45.5375 2.89611L 45.5375 0.258581L 60.3715 0.258581L 60.3715 2.89611Z"/><path id="path2_fill" d="M 73.7671 10.6794L 66.0868 10.6794L 66.0868 16.4716L 75.0643 16.4716L 75.0643 19.0833L 62.8374 19.0833L 62.8374 0.258581L 74.9744 0.258581L 74.9744 2.89611L 66.0868 2.89611L 66.0868 8.0936L 73.7671 8.0936L 73.7671 10.6794Z"/><path id="path3_fill" d="M 84.2986 14.9848L 89.0507 0.258581L 92.6211 0.258581L 85.8912 19.0833L 82.7446 19.0833L 76.0404 0.258581L 79.598 0.258581L 84.2986 14.9848Z"/><path id="path4_fill" d="M 105.67 10.6794L 97.9896 10.6794L 97.9896 16.4716L 106.967 16.4716L 106.967 19.0833L 94.7402 19.0833L 94.7402 0.258581L 106.877 0.258581L 106.877 2.89611L 97.9896 2.89611L 97.9896 8.0936L 105.67 8.0936L 105.67 10.6794Z"/><path id="path5_fill" d="M 124.447 19.0833L 121.197 19.0833L 112.862 5.72758L 112.862 19.0833L 109.613 19.0833L 109.613 0.258581L 112.862 0.258581L 121.223 13.666L 121.223 0.258581L 124.447 0.258581L 124.447 19.0833Z"/><path id="path6_fill" d="M 134.837 19.0833L 134.837 0.258581L 141.246 0.258581C 143.361 0.258581 144.97 0.685241 146.075 1.53856C 147.18 2.39188 147.732 3.66324 147.732 5.35264C 147.732 6.21458 147.501 6.99032 147.038 7.67987C 146.576 8.36942 145.899 8.90382 145.009 9.28308C 146.019 9.5589 146.799 10.0804 147.346 10.8475C 147.903 11.606 148.181 12.5197 148.181 13.5885C 148.181 15.3554 147.616 16.713 146.486 17.6611C 145.364 18.6092 143.755 19.0833 141.657 19.0833L 134.837 19.0833ZM 138.086 10.5889L 138.086 16.4716L 141.695 16.4716C 142.714 16.4716 143.511 16.2174 144.084 15.7088C 144.658 15.2003 144.945 14.4935 144.945 13.5885C 144.945 11.6319 143.952 10.632 141.965 10.5889L 138.086 10.5889ZM 138.086 8.1841L 141.272 8.1841C 142.282 8.1841 143.07 7.95569 143.635 7.49886C 144.208 7.03342 144.495 6.37834 144.495 5.53364C 144.495 4.60275 144.23 3.93044 143.699 3.51671C 143.177 3.10298 142.359 2.89611 141.246 2.89611L 138.086 2.89611L 138.086 8.1841Z"/><path id="path7_fill" d="M 158.302 11.8301L 154.68 11.8301L 154.68 19.0833L 151.431 19.0833L 151.431 0.258581L 158.006 0.258581C 160.164 0.258581 161.829 0.745576 163.003 1.71957C 164.176 2.69356 164.762 4.10283 164.762 5.94737C 164.762 7.2058 164.458 8.26168 163.85 9.115C 163.251 9.9597 162.412 10.6105 161.333 11.0673L 165.533 18.9152L 165.533 19.0833L 162.052 19.0833L 158.302 11.8301ZM 154.68 9.2055L 158.019 9.2055C 159.115 9.2055 159.971 8.92968 160.588 8.37804C 161.204 7.81778 161.513 7.05497 161.513 6.08959C 161.513 5.08113 161.226 4.30107 160.652 3.74943C 160.087 3.19779 159.239 2.91335 158.109 2.89611L 154.68 2.89611L 154.68 9.2055Z"/><path id="path8_fill" d="M 178.312 14.7004L 171.068 14.7004L 169.553 19.0833L 166.175 19.0833L 173.239 0.258581L 176.154 0.258581L 183.231 19.0833L 179.84 19.0833L 178.312 14.7004ZM 171.98 12.0628L 177.4 12.0628L 174.69 4.25367L 171.98 12.0628Z"/><path id="path9_fill" d="M 200.21 19.0833L 196.973 19.0833L 196.973 10.7182L 188.612 10.7182L 188.612 19.0833L 185.363 19.0833L 185.363 0.258581L 188.612 0.258581L 188.612 8.0936L 196.973 8.0936L 196.973 0.258581L 200.21 0.258581L 200.21 19.0833Z"/><path id="path10_fill" d="M 214.761 14.7004L 207.517 14.7004L 206.002 19.0833L 202.624 19.0833L 209.688 0.258581L 212.603 0.258581L 219.68 19.0833L 216.289 19.0833L 214.761 14.7004ZM 208.429 12.0628L 213.849 12.0628L 211.139 4.25367L 208.429 12.0628Z"/><path id="path11_fill" d="M 226.025 0.258581L 231.419 14.6874L 236.8 0.258581L 241 0.258581L 241 19.0833L 237.763 19.0833L 237.763 12.8774L 238.085 4.57689L 232.562 19.0833L 230.237 19.0833L 224.728 4.58982L 225.049 12.8774L 225.049 19.0833L 221.812 19.0833L 221.812 0.258581L 226.025 0.258581Z"/><path id="path12_fill" d="M 134.65 34.2411L 134.65 25.5528L 137.199 25.5528C 137.962 25.5528 138.638 25.7238 139.227 26.066C 139.819 26.4081 140.278 26.8934 140.602 27.522C 140.926 28.1505 141.088 28.8706 141.088 29.6821L 141.088 30.1177C 141.088 30.9412 140.924 31.6652 140.596 32.2898C 140.272 32.9144 139.807 33.3957 139.203 33.7339C 138.602 34.072 137.913 34.2411 137.134 34.2411L 134.65 34.2411ZM 136.15 26.7701L 136.15 33.0357L 137.128 33.0357C 137.915 33.0357 138.517 32.7891 138.936 32.2958C 139.359 31.7985 139.574 31.0864 139.582 30.1595L 139.582 29.6762C 139.582 28.7333 139.379 28.0133 138.972 27.516C 138.565 27.0187 137.974 26.7701 137.199 26.7701L 136.15 26.7701Z"/><path id="path13_fill" d="M 147.626 30.3624L 144.081 30.3624L 144.081 33.0357L 148.225 33.0357L 148.225 34.2411L 142.582 34.2411L 142.582 25.5528L 148.183 25.5528L 148.183 26.7701L 144.081 26.7701L 144.081 29.1689L 147.626 29.1689L 147.626 30.3624Z"/><path id="path14_fill" d="M 152.487 32.3495L 154.68 25.5528L 156.328 25.5528L 153.222 34.2411L 151.77 34.2411L 148.675 25.5528L 150.317 25.5528L 152.487 32.3495Z"/><path id="path15_fill" d="M 162.35 30.3624L 158.806 30.3624L 158.806 33.0357L 162.949 33.0357L 162.949 34.2411L 157.306 34.2411L 157.306 25.5528L 162.908 25.5528L 162.908 26.7701L 158.806 26.7701L 158.806 29.1689L 162.35 29.1689L 162.35 30.3624Z"/><path id="path16_fill" d="M 165.67 33.0357L 169.588 33.0357L 169.588 34.2411L 164.17 34.2411L 164.17 25.5528L 165.67 25.5528L 165.67 33.0357Z"/><path id="path17_fill" d="M 177.247 30.1237C 177.247 30.975 177.101 31.7229 176.808 32.3674C 176.516 33.0079 176.097 33.5012 175.551 33.8473C 175.01 34.1894 174.386 34.3605 173.678 34.3605C 172.979 34.3605 172.354 34.1894 171.805 33.8473C 171.26 33.5012 170.837 33.0099 170.537 32.3734C 170.24 31.7368 170.09 31.0029 170.086 30.1714L 170.086 29.6821C 170.086 28.8348 170.234 28.0869 170.531 27.4384C 170.831 26.79 171.252 26.2947 171.793 25.9526C 172.339 25.6065 172.963 25.4334 173.666 25.4334C 174.37 25.4334 174.992 25.6045 175.534 25.9466C 176.079 26.2848 176.5 26.7741 176.796 27.4146C 177.093 28.0511 177.243 28.793 177.247 29.6404L 177.247 30.1237ZM 175.747 29.6702C 175.747 28.7075 175.565 27.9695 175.202 27.4563C 174.842 26.9431 174.33 26.6866 173.666 26.6866C 173.018 26.6866 172.511 26.9431 172.143 27.4563C 171.779 27.9655 171.594 28.6876 171.586 29.6224L 171.586 30.1237C 171.586 31.0785 171.77 31.8164 172.137 32.3376C 172.509 32.8587 173.022 33.1193 173.678 33.1193C 174.342 33.1193 174.852 32.8647 175.208 32.3555C 175.567 31.8463 175.747 31.1023 175.747 30.1237L 175.747 29.6702Z"/><path id="path18_fill" d="M 180.24 31.0128L 180.24 34.2411L 178.741 34.2411L 178.741 25.5528L 182.042 25.5528C 183.006 25.5528 183.771 25.8054 184.336 26.3106C 184.905 26.8158 185.19 27.4842 185.19 28.3156C 185.19 29.1669 184.911 29.8293 184.354 30.3027C 183.801 30.7761 183.024 31.0128 182.024 31.0128L 180.24 31.0128ZM 180.24 29.8015L 182.042 29.8015C 182.576 29.8015 182.983 29.6762 183.263 29.4255C 183.544 29.1709 183.684 28.8049 183.684 28.3276C 183.684 27.8581 183.542 27.4842 183.257 27.2057C 182.973 26.9233 182.582 26.7781 182.084 26.7701L 180.24 26.7701L 180.24 29.8015Z"/><path id="path19_fill" d="M 191.55 30.3624L 188.005 30.3624L 188.005 33.0357L 192.149 33.0357L 192.149 34.2411L 186.506 34.2411L 186.506 25.5528L 192.107 25.5528L 192.107 26.7701L 188.005 26.7701L 188.005 29.1689L 191.55 29.1689L 191.55 30.3624Z"/><path id="path20_fill" d="M 196.541 30.8935L 194.87 30.8935L 194.87 34.2411L 193.37 34.2411L 193.37 25.5528L 196.405 25.5528C 197.401 25.5528 198.17 25.7775 198.711 26.2271C 199.252 26.6766 199.523 27.327 199.523 28.1784C 199.523 28.7592 199.383 29.2465 199.102 29.6404C 198.826 30.0302 198.438 30.3306 197.94 30.5414L 199.879 34.1635L 199.879 34.2411L 198.272 34.2411L 196.541 30.8935ZM 194.87 29.6821L 196.411 29.6821C 196.917 29.6821 197.312 29.5548 197.596 29.3002C 197.881 29.0416 198.023 28.6896 198.023 28.244C 198.023 27.7786 197.891 27.4185 197.626 27.1639C 197.365 26.9093 196.974 26.7781 196.452 26.7701L 194.87 26.7701L 194.87 29.6821Z"/><path id="path21_fill" d="M 0 25.5797L 124.447 25.5797L 124.447 34.2362L 0 34.2362L 0 25.5797Z"/></defs></svg>

<svg viewBox="0 0 242 35" xmlns="http://www.w3.org/2000/svg" xmlns:xlink="http://www.w3.org/1999/xlink" xmlns:figma="http://www.figma.com/figma/ns"><desc>Created using Figma</desc><g style="mix-blend-mode:normal" figma:type="vector" transform="translate(.74 .5)" fill="#FFF"><use xlink:href="#a" style="mix-blend-mode:normal"/><use xlink:href="#b" style="mix-blend-mode:normal"/><use xlink:href="#c" style="mix-blend-mode:normal"/><use xlink:href="#d" style="mix-blend-mode:normal"/><use xlink:href="#e" style="mix-blend-mode:normal"/><use xlink:href="#f" style="mix-blend-mode:normal"/><use xlink:href="#g" style="mix-blend-mode:normal"/><use xlink:href="#h" style="mix-blend-mode:normal"/><use xlink:href="#i" style="mix-blend-mode:normal"/><use xlink:href="#j" style="mix-blend-mode:normal"/><use xlink:href="#k" style="mix-blend-mode:normal"/><use xlink:href="#l" style="mix-blend-mode:normal"/><use xlink:href="#m" style="mix-blend-mode:normal"/><use xlink:href="#n" style="mix-blend-mode:normal"/><use xlink:href="#o" style="mix-blend-mode:normal"/><use xlink:href="#p" style="mix-blend-mode:normal"/><use xlink:href="#q" style="mix-blend-mode:normal"/><use xlink:href="#r" style="mix-blend-mode:normal"/><use xlink:href="#s" style="mix-blend-mode:normal"/><use xlink:href="#t" style="mix-blend-mode:normal"/><use xlink:href="#u" style="mix-blend-mode:normal"/><use xlink:href="#v" style="mix-blend-mode:normal"/></g><defs><path id="a" d="M40.76 14.235c0-.827-.29-1.465-.874-1.914-.573-.44-1.614-.9-3.12-1.35-1.508-.46-2.706-.97-3.596-1.53-1.707-1.07-2.56-2.48-2.56-4.21 0-1.51.614-2.76 1.838-3.75C33.682.49 35.28 0 37.24 0c1.302 0 2.462.24 3.48.724 1.02.483 1.82 1.172 2.403 2.07.582.886.873 1.873.873 2.96H40.76c0-.983-.308-1.75-.925-2.302-.608-.56-1.48-.84-2.62-.84-1.062 0-1.888.228-2.48.685-.58.457-.872 1.095-.872 1.913 0 .69.317 1.267.95 1.733.634.457 1.678.905 3.134 1.345 1.456.43 2.624.926 3.506 1.486.882.552 1.53 1.19 1.94 1.914.41.715.616 1.556.616 2.52 0 1.57-.6 2.82-1.8 3.75-1.19.923-2.81 1.384-4.86 1.384-1.35 0-2.6-.25-3.74-.75-1.13-.508-2.02-1.207-2.65-2.095-.63-.887-.94-1.922-.94-3.102h3.25c0 1.068.35 1.896 1.05 2.482.7.586 1.705.88 3.015.88 1.13 0 1.98-.23 2.545-.686.573-.46.86-1.07.86-1.83z"/><path id="b" d="M60.37 2.896h-5.83v16.187h-3.22V2.896h-5.78V.26h14.834l.002 2.636z"/><path id="c" d="M73.767 10.68h-7.68v5.792h8.977v2.61H62.837V.26h12.137v2.636h-8.887v5.198h7.68v2.585z"/><path id="d" d="M84.3 14.985L89.05.26h3.57l-6.73 18.823h-3.145L76.04.26h3.558l4.7 14.725z"/><path id="e" d="M105.67 10.68h-7.68v5.792h8.977v2.61H94.74V.26h12.137v2.636H97.99v5.198h7.68v2.585z"/><path id="f" d="M124.447 19.083h-3.25l-8.335-13.355v13.355h-3.25V.26h3.25l8.36 13.406V.26h3.225v18.823z"/><path id="g" d="M134.837 19.083V.26h6.41c2.114 0 3.723.425 4.828 1.28 1.105.852 1.657 2.123 1.657 3.813 0 .862-.23 1.637-.694 2.327-.462.69-1.14 1.224-2.03 1.603 1.01.276 1.79.797 2.338 1.565.557.758.835 1.672.835 2.74 0 1.767-.56 3.125-1.69 4.073-1.12.95-2.73 1.43-4.83 1.43h-6.82zm3.25-8.494v5.88h3.608c1.02 0 1.816-.26 2.39-.77.573-.51.86-1.22.86-2.12 0-1.96-.993-2.96-2.98-3h-3.88zm0-2.41h3.185c1.01 0 1.798-.23 2.363-.69.573-.47.86-1.12.86-1.97 0-.93-.265-1.61-.796-2.02-.53-.417-1.34-.62-2.46-.62h-3.16v5.29z"/><path id="h" d="M158.302 11.83h-3.622v7.253h-3.25V.26h6.576c2.158 0 3.823.486 4.997 1.46 1.173.974 1.76 2.383 1.76 4.227 0 1.26-.305 2.315-.913 3.168-.6.845-1.438 1.495-2.517 1.952l4.2 7.848v.168h-3.48l-3.75-7.253zm-3.622-2.624h3.34c1.095 0 1.95-.276 2.568-.828.616-.56.925-1.323.925-2.288 0-1.01-.287-1.79-.86-2.34-.566-.552-1.414-.837-2.544-.854h-3.43v6.31z"/><path id="i" d="M178.312 14.7h-7.244l-1.515 4.383h-3.378L173.24.26h2.914l7.077 18.823h-3.39l-1.52-4.383zm-6.332-2.637h5.42l-2.71-7.81-2.71 7.81z"/><path id="j" d="M200.21 19.083h-3.237v-8.365h-8.36v8.365h-3.25V.26h3.25v7.834h8.36V.26h3.237v18.823z"/><path id="k" d="M214.76 14.7h-7.243l-1.515 4.383h-3.378L209.688.26h2.915l7.077 18.823h-3.39l-1.53-4.383zm-6.33-2.637h5.42l-2.71-7.81-2.71 7.81z"/><path id="l" d="M226.025.26l5.394 14.427L236.8.26h4.2v18.823h-3.237v-6.206l.322-8.3-5.523 14.506h-2.325l-5.51-14.493.322 8.287v6.206h-3.24V.26h4.21z"/><path id="m" d="M134.65 34.24v-8.687h2.55c.762 0 1.438.17 2.027.513.592.342 1.05.827 1.375 1.456.324.63.486 1.35.486 2.16v.436c0 .823-.164 1.547-.492 2.172-.324.624-.79 1.106-1.393 1.444-.6.338-1.29.507-2.07.507h-2.483zm1.5-7.47v6.266h.978c.787 0 1.39-.247 1.808-.74.423-.497.638-1.21.646-2.136v-.484c0-.943-.203-1.663-.61-2.16-.407-.497-.998-.746-1.773-.746h-1.05z"/><path id="n" d="M147.626 30.362h-3.545v2.674h4.15v1.205h-5.64v-8.68h5.6v1.22h-4.1v2.4h3.55v1.2z"/><path id="o" d="M152.487 32.35l2.193-6.797h1.648l-3.106 8.688h-1.452l-3.095-8.68h1.642l2.17 6.8z"/><path id="p" d="M162.35 30.362h-3.544v2.674h4.143v1.205h-5.65v-8.68h5.6v1.22h-4.1v2.4h3.54v1.2z"/><path id="q" d="M165.67 33.036h3.918v1.205h-5.418v-8.68h1.5v7.49z"/><path id="r" d="M177.247 30.124c0 .85-.146 1.6-.44 2.243-.29.64-.71 1.134-1.256 1.48-.54.342-1.16.514-1.87.514-.7 0-1.32-.17-1.87-.51-.54-.34-.97-.83-1.27-1.47-.29-.63-.44-1.37-.45-2.2v-.49c0-.84.15-1.59.45-2.24.3-.64.72-1.14 1.27-1.48.548-.342 1.17-.52 1.875-.52.703 0 1.325.17 1.867.518.543.337.964.826 1.26 1.467.295.636.445 1.378.45 2.225v.484zm-1.5-.454c0-.963-.182-1.7-.545-2.214-.36-.513-.872-.77-1.536-.77-.648 0-1.155.257-1.523.77-.364.51-.55 1.232-.557 2.166v.502c0 .954.184 1.692.55 2.214.373.52.886.78 1.542.78.664 0 1.174-.253 1.53-.763.36-.51.54-1.253.54-2.23v-.455z"/><path id="s" d="M180.24 31.013v3.228h-1.5v-8.68h3.302c.964 0 1.73.26 2.294.76.57.51.854 1.18.854 2.01 0 .85-.28 1.52-.836 1.99-.553.477-1.33.71-2.33.71h-1.784zm0-1.212l1.802.01c.534 0 .94-.12 1.22-.37.282-.25.422-.62.422-1.093 0-.47-.142-.844-.427-1.122-.284-.28-.675-.426-1.173-.434h-1.844v3.034z"/><path id="t" d="M191.55 30.362h-3.545v2.674h4.144v1.205h-5.65v-8.68h5.6v1.22H188v2.4h3.544v1.2z"/><path id="u" d="M196.54 30.893h-1.67v3.348h-1.5v-8.68h3.035c.996 0 1.765.23 2.306.68.55.45.82 1.1.82 1.95 0 .58-.14 1.07-.42 1.47-.27.39-.66.69-1.16.9l1.94 3.624v.078h-1.6l-1.73-3.344zm-1.67-1.21h1.54c.507 0 .902-.128 1.186-.383.285-.258.427-.61.427-1.056 0-.465-.132-.825-.397-1.08-.26-.255-.652-.386-1.174-.394h-1.582v2.912z"/><path id="v" d="M0 25.58h124.447v8.656H0V25.58z"/></defs></svg>
